X: 23187
T: Le Ronde Des Voyageurs
R: reel
M: 4/4
K: Aminor
|:"Am"E3E A2c2|e4- eede|"Dm"f3f f2a2|"Am"e3a "D7"a4|"G"G3G B2cd|
d4- "/F"dBde|1 "E7"f3d d2B2|"Am"~c2AB "E7"~A2E2:|2 "E7"f2d2 B2e2|"Am"A6 "E7"AB||
"A"c3c c2e2|A4- AAcd|"A"e2a2 g2f2|"E7"g2eg f2ec|
"Bm"d3f d2c2|"E7"B2GB EGBe|"E7"g3a gfeg|fedf "(A)"ecAB||
"A"c3c c2e2|A4- AAcd|"A"e2a2 g2f2|"D"b4 f3g|
"D"a2ga "B7"g2fg|"E"f2ef "F#(m)"eAce|"B(m)"[d'2f2]b2 "E7"f2g2|"A"afec A4||

